svg/faucet.svg

<svg xmlns="http://www.w3.org/2000/svg" viewBox="0 0 24 24"><path d="M19 14v2h-3v-1.72zm0-1c0-1.1-1-2-2.2-2H10v-1H5v11h5v-7.09zM5 9h5V7l5.36-1.79a.932.932 0 1 0-.61-1.76L5 7z"/></svg>

<svg xmlns="http://www.w3.org/2000/svg" id="mdi-faucet" viewBox="0 0 24 24"><path d="M19 14V16H16V14.28L19 14M19 13C19 11.9 18 11 16.8 11H10V10H5V21H10V13.91L19 13M5 9H10V7L15.36 5.21C15.74 5.09 16 4.73 16 4.33C16 3.68 15.36 3.23 14.75 3.45L5 7V9Z" /></svg>
